static/logos/draftbit-frame-color.svg

<svg width="127" height="30" viewBox="0 0 127 30" fill="none" xmlns="http://www.w3.org/2000/svg">
<g clip-path="url(#clip0_1_2958)">
<path d="M16.1069 0.550584L25.7498 5.96179C27.0954 6.71688 27.9275 8.1331 27.9275 9.66822V20.3318C27.9275 21.8669 27.0954 23.2831 25.7498 24.0382L16.1069 29.4494C14.7987 30.1835 13.1991 30.1835 11.8908 29.4494L2.24798 24.0382C0.902394 23.2831 0.0703125 21.8669 0.0703125 20.3318V9.66822C0.0703125 8.1331 0.902394 6.71688 2.24798 5.96179L11.8908 0.550584C13.1991 -0.183528 14.7987 -0.183528 16.1069 0.550584ZM1.67746 9.71139V20.3318C1.67746 21.2848 2.19495 22.1656 3.03448 22.6367L12.5404 27.971C12.6635 28.0187 12.7947 28.0434 12.9275 28.0434C13.5192 28.0434 13.9989 27.5637 13.9989 26.972V18.3878C13.9989 16.9888 13.2202 15.7061 11.979 15.0607L11.2714 14.6928C11.1045 14.6217 10.9397 14.5439 10.7775 14.4592L1.67746 9.71139ZM11.6469 13.5093C13.3549 14.4004 14.6475 14.4004 16.3555 13.5093L25.5873 8.32656C25.36 7.80604 24.9657 7.3619 24.4499 7.07243L15.3205 1.95213C14.5008 1.49215 13.497 1.49215 12.6773 1.95213L3.56524 7.07243C3.04939 7.3619 2.65514 7.80604 2.4278 8.32656L11.6469 13.5093ZM13.9989 3.75C16.0078 3.75 17.6478 4.73732 17.7444 5.97794L17.7489 8.10268C17.7489 9.3971 16.07 10.4464 13.9989 10.4464C11.9278 10.4464 10.2489 9.3971 10.2489 8.10268V5.97794C10.35 4.73732 11.99 3.75 13.9989 3.75ZM13.9993 7.5C15.739 7.5 17.1493 6.79485 17.1493 5.925C17.1493 5.05515 15.739 4.35 13.9993 4.35C12.2596 4.35 10.8493 5.05515 10.8493 5.925C10.8493 6.79485 12.2596 7.5 13.9993 7.5Z" fill="#5A45FF"/>
<path fill-rule="evenodd" clip-rule="evenodd" d="M42.6977 15.8052C42.6977 17.0068 43.0067 17.9724 43.6247 18.7019C44.2426 19.4315 45.058 19.7962 46.0708 19.7962C47.0492 19.7962 47.8474 19.4272 48.4654 18.6891C49.0834 17.9509 49.3924 16.9811 49.3924 15.7795C49.3924 14.595 49.092 13.6509 48.4912 12.9471C47.8904 12.2433 47.0922 11.8914 46.0965 11.8914C45.1009 11.8914 44.2856 12.2476 43.6504 12.96C43.0153 13.6724 42.6977 14.6208 42.6977 15.8052ZM52.2762 3.4716V22.1136H50.5886C50.1418 22.1136 49.7327 21.8629 49.5298 21.4648C49.421 21.2513 49.3666 21.0437 49.3666 20.842C49.02 21.2382 48.7444 21.5709 48.0921 21.9314C47.4397 22.2919 46.5772 22.4226 45.7361 22.4226C43.9508 22.4226 42.5003 21.7961 41.3845 20.543C40.2688 19.2898 39.7109 17.7106 39.7109 15.8052C39.7109 13.9685 40.2731 12.415 41.3974 11.1447C42.5218 9.87442 43.9508 9.23929 45.6846 9.23929C46.6802 9.23929 47.4827 9.41953 48.0921 9.78001C48.7014 10.1405 49.1263 10.5611 49.3666 11.0417V3.4716H52.2762ZM62.9341 9.41953V12.4579H62.5499C60.3012 12.4579 59.1768 13.6852 59.1768 16.1399V22.1136H56.19V9.57402H58.127C58.4706 9.57402 58.7751 9.79554 58.8808 10.1225L59.1768 11.0378C59.3194 10.7407 59.7156 10.0811 60.4088 9.7503C61.102 9.41953 61.9062 9.41953 62.7301 9.41953H62.9341ZM64.6078 18.7148C64.6078 17.6505 64.9554 16.7965 65.6506 16.1528C66.3458 15.5091 67.2599 15.1014 68.3929 14.9298L71.6114 14.4405C72.2294 14.3547 72.5384 14.0543 72.5384 13.5393C72.5384 12.9729 72.341 12.5137 71.9462 12.1618C71.5514 11.8099 70.9591 11.6339 70.1695 11.6339C69.4142 11.6339 68.8134 11.8442 68.3671 12.2648C67.9208 12.6853 67.6633 13.2303 67.5947 13.8998L64.9029 13.8741C65.0231 12.7411 65.5262 11.1833 66.4875 10.3851C67.4487 9.58689 68.6675 9.18779 70.1438 9.18779C71.9633 9.18779 73.3065 9.62551 74.1734 10.501C75.0403 11.3764 75.4737 12.5008 75.4737 13.8741V20.1052C75.4737 20.9292 75.5252 21.5986 75.6282 22.1136H74.0221C73.8523 22.1136 73.684 22.0824 73.5255 22.0217C72.9929 21.8174 72.7265 21.4849 72.7265 21.0243C72.1324 22.0146 70.6072 22.4998 68.8563 22.4998C67.5861 22.4998 66.5604 22.1265 65.7794 21.3798C64.9983 20.6331 64.6078 19.7447 64.6078 18.7148ZM69.4228 20.1567C70.3498 20.1567 71.1008 19.9035 71.6758 19.3971C72.2509 18.8907 72.5384 18.0625 72.5384 16.9124V16.3459L69.2683 16.8352C68.1525 17.024 67.5947 17.5904 67.5947 18.5346C67.5947 18.9809 67.7577 19.3628 68.0839 19.6804C68.41 19.9979 68.8563 20.1567 69.4228 20.1567ZM84.6402 6.41685C84.1424 6.41685 83.709 6.55846 83.3399 6.8417C82.9709 7.12493 82.7863 7.61844 82.7863 8.32224V9.57402H85.6959V12.1747H82.7863V22.1136H79.7737V12.1747H77.5851V9.57402H78.4447C79.1787 9.57402 79.7737 8.979 79.7737 8.245C79.7737 6.85456 80.1771 5.75597 80.9839 4.94917C81.7907 4.14238 82.8464 3.73899 84.151 3.73899H85.6959V6.41685H84.6402ZM92.7233 5.78898V9.62552H95.3239V12.2776H92.7233V18.0968C92.7233 18.6461 92.8521 19.0452 93.1095 19.2941C93.367 19.543 93.7704 19.6675 94.3197 19.6675H94.7297V22.3196H93.5215C92.3542 22.3196 91.4359 21.9892 90.7664 21.3283C90.097 20.6674 89.7622 19.7533 89.7622 18.5861V12.2776H87.4448V9.62552H88.0886C88.7237 9.62552 89.2043 9.44528 89.5305 9.0848C89.8566 8.72432 90.0197 8.25226 90.0197 7.66862V5.78898H92.7233ZM97.7443 3.41218H100.654V11.0853C100.895 10.6046 101.394 10.2098 102.003 9.84933C102.613 9.48885 103.582 9.25513 104.578 9.25513C106.312 9.25513 107.697 9.815 108.822 11.0853C109.946 12.3556 110.322 13.9546 110.322 15.7913C110.322 17.6968 109.95 19.2304 108.834 20.4835C107.719 21.7366 106.165 22.4266 104.38 22.4266C103.539 22.4266 102.779 22.2325 102.127 21.872C101.475 21.5115 101.001 21.1787 100.654 20.7826C100.654 20.9843 100.6 21.1919 100.491 21.4054C100.288 21.8035 99.8787 22.0542 99.4319 22.0542H97.7443V3.41218ZM106.39 18.7148C107.025 17.9938 107.343 17.024 107.343 15.8052C107.343 14.5864 107.034 13.6295 106.416 12.9342C105.798 12.239 104.983 11.8914 103.97 11.8914C102.991 11.8914 102.185 12.239 101.55 12.9342C100.914 13.6295 100.597 14.5864 100.597 15.8052C100.597 17.0068 100.914 17.9681 101.55 18.6891C102.185 19.41 102.991 19.7705 103.97 19.7705C104.966 19.7705 105.772 19.4186 106.39 18.7148ZM113.239 12.5232H112.005V9.55223H114.976V9.57402H116.201V22.1136H113.239V12.5232ZM113.342 6.53568C112.965 6.15804 112.776 5.70315 112.776 5.17101C112.776 4.63887 112.965 4.17969 113.342 3.79346C113.72 3.40723 114.175 3.21411 114.707 3.21411C115.256 3.21411 115.72 3.40293 116.098 3.78058C116.475 4.15823 116.664 4.6217 116.664 5.17101C116.664 5.70315 116.475 6.15804 116.098 6.53568C115.72 6.91333 115.256 7.10215 114.707 7.10215C114.175 7.10215 113.72 6.91333 113.342 6.53568ZM123.848 5.73748V9.57402H126.448V12.2261H123.848V18.0453C123.848 18.5946 123.977 18.9937 124.234 19.2426C124.492 19.4916 124.895 19.616 125.444 19.616H125.854V22.2681H124.646C123.479 22.2681 122.56 21.9377 121.891 21.2768C121.221 20.6159 120.887 19.7018 120.887 18.5346V12.2261H118.569V9.57402H119.213C119.848 9.57402 120.329 9.39378 120.655 9.0333C120.981 8.67282 121.144 8.20076 121.144 7.61713V5.73748H123.848Z" fill="#16192F"/>
</g>
<defs>
<clipPath id="clip0_1_2958">
<rect width="127" height="30" fill="white"/>
</clipPath>
</defs>
</svg>

<svg xmlns="http://www.w3.org/2000/svg" width="270.933" height="64" fill="none" viewBox="0 0 127 30"><g clip-path="url(#a)"><path fill="#5A45FF" d="m16.107.55 9.643 5.412a4.252 4.252 0 0 1 2.177 3.706v10.664a4.252 4.252 0 0 1-2.177 3.706l-9.643 5.411a4.311 4.311 0 0 1-4.216 0l-9.643-5.41A4.252 4.252 0 0 1 .07 20.331V9.668c0-1.535.832-2.951 2.178-3.706L11.891.55a4.31 4.31 0 0 1 4.216 0ZM1.677 9.712v10.62c0 .954.518 1.835 1.357 2.306l9.506 5.334A1.071 1.071 0 0 0 14 26.972v-8.584a3.75 3.75 0 0 0-2.02-3.327l-.708-.368a6.959 6.959 0 0 1-.494-.234l-9.1-4.748Zm9.97 3.798c1.708.891 3 .891 4.708 0l9.232-5.182a2.659 2.659 0 0 0-1.137-1.255l-9.13-5.12a2.704 2.704 0 0 0-2.643 0l-9.112 5.12c-.516.29-.91.734-1.137 1.255l9.219 5.182Zm2.352-9.759c2.009 0 3.649.987 3.745 2.228l.005 2.125c0 1.294-1.679 2.343-3.75 2.343-2.071 0-3.75-1.049-3.75-2.343V5.978c.101-1.24 1.741-2.228 3.75-2.228Zm0 3.75c1.74 0 3.15-.705 3.15-1.575S15.74 4.35 14 4.35s-3.15.705-3.15 1.575S12.26 7.5 14 7.5Z"/><path fill="#16192F" fill-rule="evenodd" d="M42.698 15.805c0 1.202.309 2.167.927 2.897.618.73 1.433 1.094 2.446 1.094.978 0 1.776-.369 2.394-1.107.618-.738.927-1.708.927-2.91 0-1.184-.3-2.128-.9-2.832-.602-.704-1.4-1.056-2.395-1.056-.996 0-1.811.357-2.447 1.069-.635.712-.952 1.66-.952 2.845Zm9.578-12.333v18.642H50.59c-.447 0-.856-.251-1.06-.65a1.368 1.368 0 0 1-.162-.622c-.347.396-.623.729-1.275 1.09-.652.36-1.515.49-2.356.49-1.785 0-3.236-.626-4.351-1.879-1.116-1.253-1.674-2.832-1.674-4.738 0-1.836.562-3.39 1.686-4.66 1.125-1.27 2.554-1.906 4.288-1.906.995 0 1.798.18 2.407.541.61.36 1.034.781 1.275 1.262v-7.57h2.91ZM62.934 9.42v3.038h-.384c-2.249 0-3.373 1.227-3.373 3.682v5.974H56.19V9.574h1.937c.344 0 .648.222.754.549l.296.915c.142-.297.539-.957 1.232-1.288.693-.33 1.497-.33 2.321-.33h.204Zm1.674 9.295c0-1.064.347-1.918 1.043-2.562.695-.644 1.609-1.052 2.742-1.223l3.218-.49c.618-.085.927-.386.927-.9 0-.567-.197-1.026-.592-1.378-.395-.352-.987-.528-1.776-.528-.756 0-1.357.21-1.803.63-.446.421-.704.966-.772 1.636l-2.692-.026c.12-1.133.623-2.69 1.584-3.489.962-.798 2.18-1.197 3.657-1.197 1.82 0 3.162.438 4.03 1.313.866.875 1.3 2 1.3 3.373v6.231c0 .824.051 1.494.154 2.009h-1.606c-.17 0-.338-.032-.497-.092-.532-.205-.799-.537-.799-.998-.594.99-2.119 1.476-3.87 1.476-1.27 0-2.296-.373-3.077-1.12-.78-.747-1.171-1.635-1.171-2.665Zm4.815 1.442c.927 0 1.678-.253 2.253-.76.575-.506.862-1.334.862-2.485v-.566l-3.27.49c-1.115.188-1.673.754-1.673 1.699 0 .446.163.828.489 1.145.326.318.772.477 1.339.477ZM84.64 6.417c-.498 0-.931.141-1.3.425-.37.283-.554.776-.554 1.48v1.252h2.91v2.6h-2.91v9.94h-3.012v-9.94h-2.189v-2.6h.86c.734 0 1.329-.595 1.329-1.329 0-1.39.403-2.489 1.21-3.296.807-.807 1.862-1.21 3.167-1.21h1.545v2.678H84.64Zm8.083-.628v3.837h2.6v2.652h-2.6v5.819c0 .55.13.948.386 1.197.258.249.661.373 1.21.373h.41v2.653h-1.207c-1.168 0-2.086-.33-2.756-.992-.669-.66-1.004-1.575-1.004-2.742v-6.308h-2.317V9.626h.644c.635 0 1.115-.18 1.442-.541.326-.36.489-.833.489-1.416v-1.88h2.703Zm5.021-2.377h2.91v7.673c.241-.48.74-.875 1.349-1.236.61-.36 1.579-.594 2.575-.594 1.734 0 3.119.56 4.244 1.83 1.124 1.27 1.5 2.87 1.5 4.706 0 1.906-.372 3.44-1.488 4.692-1.115 1.254-2.669 1.944-4.454 1.944-.841 0-1.601-.194-2.253-.555-.652-.36-1.126-.693-1.473-1.09 0 .202-.054.41-.163.623a1.189 1.189 0 0 1-1.06.65h-1.687V3.411Zm8.646 15.303c.635-.721.953-1.691.953-2.91s-.309-2.175-.927-2.87c-.618-.696-1.433-1.044-2.446-1.044-.979 0-1.785.348-2.42 1.043-.636.696-.953 1.652-.953 2.871 0 1.202.317 2.163.953 2.884.635.721 1.441 1.081 2.42 1.081.996 0 1.802-.351 2.42-1.055Zm6.849-6.192h-1.234v-2.97h2.971v.021h1.225v12.54h-2.962v-9.59Zm.103-5.987a1.862 1.862 0 0 1-.566-1.365c0-.532.189-.991.566-1.378.378-.386.833-.579 1.365-.579.549 0 1.013.189 1.391.567.377.377.566.84.566 1.39 0 .532-.189.987-.566 1.365a1.893 1.893 0 0 1-1.391.566c-.532 0-.987-.189-1.365-.566Zm10.506-.799v3.837h2.6v2.652h-2.6v5.82c0 .549.129.948.386 1.197.258.249.661.373 1.21.373h.41v2.652h-1.208c-1.167 0-2.086-.33-2.755-.991-.67-.661-1.004-1.575-1.004-2.742v-6.309h-2.318V9.574h.644c.635 0 1.116-.18 1.442-.54.326-.361.489-.833.489-1.417v-1.88h2.704Z" clip-rule="evenodd"/></g><defs><clipPath id="a"><path fill="#fff" d="M0 0h127v30H0z"/></clipPath></defs></svg>
